X:1
T:The Grand Old Story of Salvation
T:The Grand Old Story of Salvation
T:William James Kirkpatrick
T:Eliza Edmunds Hewitt, 1903
T:Public Domain Courtesy of the Cyber Hymnal™
T:Public Domain Courtesy of the Cyber Hymnal™
C:William James Kirkpatrick
Z:Public Domain
Z:Courtesy of the Cyber Hymnal™
%%score 1 ( 2 3 )
L:1/8
Q:1/4=90
M:4/4
K:Bb
V:1 treble 
V:2 bass 
V:3 bass 
V:1
 [DF] | [DB]>[DB] [DB]>[DB] [DB]>[DF] [B,D]>[CE] | [DF]>[DF] [^CG]>[CG] [DF]3 [DF] | %3
w: 1.~We|tell it as we jour- ney T’ward the|man- sions built a- bove, The|
w: 2.~His|hand can lift the fall- en, And His|blood can make them white, The|
w: 3.~We’ll|sing it in the bat- tle, And its|notes shall vic- t’ry be, The|
w: 4.~The|an- gels look with won- der, Yet their|harps can ne- ver tell, The|
 [FB]2 [DB]2 [=EB]>[EB] [EA]>[EB] | [Ec]2 [Ec]2 z3 [EF] | %5
w: grand old sto- ry of sal-|va- tion; We|
w: grand old sto- ry of sal-|va- tion; His|
w: grand old sto- ry of sal-|va- tion; We’ll|
w: grand old sto- ry of sal-|va- tion; His|
 [DB]>[DB] [DB]>[DB] [DB]>[DF] [B,D]>[CE] | [DF]>[DF] [^CG]>[CG] [DF]3 [DF] | %7
w: sing it out with glad- ness, In the|mel- o- dies of love, The|
w: love can pierce the dark- ness With a|ne- ver fad- ing light, The|
w: sing it in our tri- als, Till the|pass- ing sha- dows flee, The|
w: ran- somed, clothed with beau- ty, Shall the|praise of Je- sus swell, The|
 [EG]2 [GB]2 [FB]>[FA] [EG]>[EA] | [DB]2 [DB]3 z3 ||"^Refrain" [Fc]>[Fc] ([Fc]2 F>F F2) | %10
w: grand old sto- ry of sal-|va- tion.||
w: grand old sto- ry of sal-|va- tion.|Ring it out, * * *|
w: grand old sto- ry of sal-|va- tion.||
w: grand old sto- ry of sal-|va- tion.||
 [Fd]>[Fd] [Fd]2 z4 | [Fd]3 [Fd] [Ge]>[Fd] [Fc]>[=EB] | [Ec]2 [Ec]2 z4 | [FB]>[FB] [FB]2 z4 | %14
w: ||||
w: ring it out,|Ring, to ev- ery tribe and|na- tion,|Ring it out,|
w: ||||
w: ||||
 [Fc]>[Fc] ([Fc]2 F>F F>)[Fc] | [Fd]2 [FB]2 [EA]>[EA] [EG]>[EA] | [DB]2 [DB]3 z2 |] %17
w: |||
w: ring it out, * * * The|grand old sto- ry of sal-|va- tion.|
w: |||
w: |||
V:2
 [B,,F,] | [B,,F,]>[B,,F,] [B,,F,]>[B,,F,] [B,,F,]>[B,,F,] [B,,F,]>[B,,F,] | %2
w: ~|~ ~ ~ ~ ~ ~ ~ ~|
 [B,,B,]>[B,,B,] [B,,B,]>[B,,B,] [B,,B,]3 [B,,B,] | [B,,D]2 [G,B,]2 [C,G,]>[C,G,] [C,C]>[C,B,] | %4
w: ~ ~ ~ ~ ~ ~|~ ~ ~ ~ ~ ~|
 [F,A,]2 [F,A,]2 z3 [F,A,] | [B,,B,]>[B,,F,] [B,,F,]>[B,,F,] [B,,F,]>[B,,F,] [B,,F,]>[B,,F,] | %6
w: ~ ~ ~|~ ~ ~ ~ ~ ~ ~ ~|
 [B,,B,]>[B,,B,] [B,,B,]>[B,,B,] [B,,B,]3 [B,,B,] | [E,B,]2 [E,E]2 [F,D]>[F,C] [F,B,]>[F,C] | %8
w: ~ ~ ~ ~ ~ ~|~ ~ ~ ~ ~ ~|
 [B,,B,]2 [B,,B,]3 z3 || [F,A,]>[F,A,] [F,A,]2 F,>F, F,2 | B,>B, B,2 [B,,B,]>[B,,B,] [B,,B,]2 | %11
w: ~ ~|~ ~ ~ Ring it out,|ring it out, ~ ~ ~|
 B,3 B, B,>B, [A,C]>G, | [F,A,]2 ([F,A,]2 F,>E,D,>C,) | [B,,D]>[B,,D] [B,,D]2 B,>B, B,2 | %14
w: ~ ~ ~ ~ ~ ~|~ ~ * * * *|ev- ery- where ~ ~ ~|
 [F,A,]>[F,A,] [F,A,]2 F,>F, F,>[F,A,] | B,2 [B,,D]2 [F,C]>[F,C] [F,C]>[F,C] | %16
w: ev- ery- where * * * *||
 [B,,B,]2 [B,,B,]3 z2 |] %17
w: |
V:3
 x | x8 | x8 | x8 | x8 | x8 | x8 | x8 | x8 || x8 | B,>B, B,2 x4 | B,3 B, B,>B, x G,/ x/ | x8 | %13
 x4 B,>B, B,2 | x8 | B,2 x6 | x7 |] %17

